src/Home/genie.svg

<svg width="680" height="756" fill="none" xmlns="http://www.w3.org/2000/svg">
  <g filter="url(#filter0_d)">
    <path fill-rule="evenodd" clip-rule="evenodd" d="M351.376 123.679c-67.436-10.816-141.72-51.294-196.801-11.154-56.212 40.965-55.38 123.727-52.678 192.963 2.389 61.205 30.361 114.363 66.608 163.905 41.515 56.743 82.038 125.271 151.962 134.834 72.419 9.904 140.919-35.435 191.521-87.859 46.46-48.132 67.601-113.734 67.458-180.442-.132-62.192-22.517-123.685-68.197-166.195-42.106-39.185-102.932-36.92-159.873-46.052z" fill="#F2F2F2"/>
  </g>
  <g filter="url(#filter1_d)">
    <path d="M494.035 486.217c-.007 8.285 3.774 11.427 6.181 14.999 2.407 3.572 5.291.37 4.171-1.084-1.12-1.454-1.937-3.133-2.475-4.891a20.074 20.074 0 01-.868-5.778c-.001-3.334.867-6.652 2.758-9.482l.141-.209c3.811-5.563 9.537-9.337 15.504-12.307 7.861-3.913 15.904-7.565 21.782-14.284 5.898-6.74 8.86-15.361 10.025-24.118.437-3.296.712-6.67.711-10.02-.004-7.788-1.505-15.459-5.954-21.783-9.713-13.837-25.618-18.405-45.545-17.59-19.926.815-50.225-3.261-69.879-14.673-19.653-11.413-37.669-52.172-40.125-57.063-2.457 6.522-17.361 27.227-57.323 44.835-25.385 7.337-54.046 13.043-72.881 2.446 2.353 30.985 31.344 80.041 68.503 97.966 13.922 6.716 58.96 19.876 94.992 0 15.705-8.664 34.676-22.97 46.942-33.194 8.762-7.303 24.974-13.428 38.658-13.428 1.982 0 3.963.123 5.95.379 5.148.67 10.37 2.333 14.031 5.996 3.803 3.809 5.213 8.848 5.213 14.217 0 5.781-1.638 11.945-3.683 17.366-2.21 5.858-5.97 11.273-10.805 15.38-5.318 4.52-12.137 6.443-17.488 10.918-2.956 2.446-5.691 5.502-7.242 9.123a15.746 15.746 0 00-1.294 6.279z" fill="#3A70A6"/>
    <path fill-rule="evenodd" clip-rule="evenodd" d="M605.242 559.068c-5.981-1.404-14.315 10.26-17.386 14.94-1.017-3.912-2.667-9.897-4.688-15.938-2.236-6.739-4.948-13.545-7.778-17.635 1.677-.38 4.098-1.145 5.711-2.605 2.692-2.43 4.933-14.509 3.064-15.425-1.869-.918-8.258 3.19-10.775 7.795-1.616 2.965-1.115 6.475-.542 8.611-3.593.09-14.037.251-22.159-.801-3.114-.396-5.891-.968-7.806-1.806-4.353-1.886-12.756-11.222-20.793-20.151-6.807-7.563-13.352-14.833-16.948-17.036-2.846-.494-5.249-.456-8.225.255a360.492 360.492 0 014.611 5.683c4.076 5.163 7.902 10.786 11.074 16.649 1.832 3.39 3.364 6.914 4.896 10.44 1.212 2.789 2.425 5.579 3.786 8.303 5.342 10.698 11.761 22.825 20.838 31.41-2.176-.056-5.95.154-8.574 1.929 0 0-4.717-2.175-6.148-.649-1.427 1.513.26 9.525 15.66 18.58 15.39 9.048 21.553 4.93 21.535 2.853-.006-1.993-4.294-5.113-4.294-5.113s.069-4.466-.544-7.576l-.004-.022c5.668 1.377 11.164 1.275 15.833.605 7.664-1.096 13.092-3.732 13.377-3.872l.004-.001c2.754-.632 7.865.26 13.539 1.251 10.237 1.788 22.304 3.896 25.657-2.055 5.231-9.254-15.461-16.866-22.921-18.619zm-.382 3.729c-5.3-1.562-15.153 13.093-15.153 13.093 1.396-.47 6.102.02 11.549.586 9.251.963 20.641 2.147 21.592-.767 1.518-4.641-12.681-11.362-17.988-12.912z" fill="#FFBF40"/>
    <path fill-rule="evenodd" clip-rule="evenodd" d="M560.301 589.357s-5.916-.92-13.695-5.403c-4.047-2.333-8.584-5.625-13.058-10.268 2.394-1.621 5.747-1.937 7.969-1.937.256 0 .497.003.719.011 2.172 1.523 11.529 7.953 17.435 9.985l.086.036c.5 2.54.546 5.983.546 7.162 0 .264-.002.414-.002.414z" fill="#FF9F40"/>
    <path d="M572.848 538.811c-1.172.029-3.074.065-5.388.065-4.774 0-11.299-.158-16.771-.865 4.147 4.584 15.154 16.238 32.479 20.059-2.236-6.739-4.948-13.545-7.778-17.635 1.677-.38 4.098-1.145 5.711-2.605 2.001-1.807 3.752-8.94 3.752-12.862 0-1.355-.208-2.328-.688-2.563a1.467 1.467 0 00-.65-.129c-2.401 0-7.848 3.758-10.125 7.923-.815 1.496-1.092 3.128-1.092 4.652-.002 1.503.265 2.9.55 3.96z" fill="#FF9F40"/>
    <path fill-rule="evenodd" clip-rule="evenodd" d="M438.498 270.748l46.395 45.055c13.499 5.732 24.56 12.061 33.182 18.988 1.939 2.328 4.05 6.789-5.073 4.793-9.123-1.996-18.809-3.688-20.523-.734-1.715 2.953 3.337 7.479.169 11.344-2.113 2.577-9.218-5.62-21.315-24.589l-48.244-28.315 15.409-26.542zm-226.87-40.776l35.863.134c-27.315 88.094-41.814 134.219-43.498 138.374-3.79 9.349 4.229 23.588 7.659 31.24-11.17 4.976-9.98-13.451-24.07-6.925-12.861 5.956-22.644 16.749-37.503 7.622-1.827-1.122-3.829-5.347 1.008-8.649 12.05-8.225 29.416-22.621 31.762-27.36 3.199-6.461 12.792-51.274 28.779-134.436z" fill="#E6B795"/>
    <path fill-rule="evenodd" clip-rule="evenodd" d="M320.909 128.698l14.162-2.418c22.31 78.504 136.936 132.016 143.972 161.363 2.581 10.763-5.2 16.203-1.181 19.481l-18.408 13.414c-3.117-3.62-9.769 3.003-23.661-1.63-13.892-4.633-114.884-97.254-114.884-190.21z" fill="#C2C7CC"/>
    <path fill-rule="evenodd" clip-rule="evenodd" d="M348.878 44.938c8.552 19.697 22.497 64.727 16.111 73.02l-47.011 6.737-.05-.247c-17.702.578-33.38-12.186-35.963-30.043l-4.9-33.889c-2.772-19.161 10.586-36.93 29.835-39.69l3.242-.464c17.481-2.505 33.808 8.231 38.736 24.576z" fill="#333230"/>
    <path fill-rule="evenodd" clip-rule="evenodd" d="M299.286 85.317c-8.732-7.657-15.334-17.63-16.223-29.736-2.56-34.883 46.831-34.207 58.745-18.123 11.915 16.084 17.192 60.456 5.502 65.311-4.662 1.937-15.416.371-26.824-4.423l13.299 45.46-38.905 5.575 4.406-64.064z" fill="#E6B795"/>
    <path fill-rule="evenodd" clip-rule="evenodd" d="M344.731 139.135c-1.632 103.934 58.723 130.446 45.279 172.14-11.101 34.431-117.363 71.443-135.751 37.693-7.443-13.661-10.82-30.184-11.203-48.148-4.7 13.801-8.416 25.682-11.151 35.643-4.716 17.184-23.002 19.915-23.002 26.535l-24.091-6.62c1.634-8.993-9.723-13.372-6.678-33.464 13.644-90.024 50.303-155.28 109.977-195.767l.618-8.789c.252-3.592 3.382-6.301 6.992-6.05l44.112 3.07c3.609.252 6.331 3.368 6.078 6.961l-1.18 16.796z" fill="#DAE0E6"/>
    <path fill-rule="evenodd" clip-rule="evenodd" d="M308.96 77.976c4.564 18.911 7.012 40.903 2.421 46.865l-47.011 6.737c-9.171-44.928 18.68-31.012 12.512-73.666 1.356-1.761 2.628-3.495 3.914-5.016l-.234-1.247c5.742-17.757 14.87-27.532 27.384-29.325 18.772-2.69 25.955 5.156 32.068 11.815-1.909 13.427-16.273 17.435-28.12 27.332a9.005 9.005 0 00-5.905-1.179c-4.924.706-8.341 5.252-7.633 10.153.709 4.902 5.276 8.304 10.2 7.598.136-.02.27-.042.404-.067z" fill="#333230"/>
  </g>
  <defs>
    <filter id="filter0_d" x=".937" y="45.142" width="678.51" height="710.453" filterUnits="userSpaceOnUse" color-interpolation-filters="sRGB">
      <feFlood flood-opacity="0" result="BackgroundImageFix"/>
      <feColorMatrix in="SourceAlpha" values="0 0 0 0 0 0 0 0 0 0 0 0 0 0 0 0 0 0 127 0"/>
      <feOffset dy="50"/>
      <feGaussianBlur stdDeviation="50"/>
      <feColorMatrix values="0 0 0 0 0 0 0 0 0 0 0 0 0 0 0 0 0 0 0.1 0"/>
      <feBlend in2="BackgroundImageFix" result="effect1_dropShadow"/>
      <feBlend in="SourceGraphic" in2="effect1_dropShadow" result="shape"/>
    </filter>
    <filter id="filter1_d" x="108.07" y="0" width="560.93" height="657.228" filterUnits="userSpaceOnUse" color-interpolation-filters="sRGB">
      <feFlood flood-opacity="0" result="BackgroundImageFix"/>
      <feColorMatrix in="SourceAlpha" values="0 0 0 0 0 0 0 0 0 0 0 0 0 0 0 0 0 0 127 0"/>
      <feOffset dy="20"/>
      <feGaussianBlur stdDeviation="20"/>
      <feColorMatrix values="0 0 0 0 0 0 0 0 0 0 0 0 0 0 0 0 0 0 0.15 0"/>
      <feBlend in2="BackgroundImageFix" result="effect1_dropShadow"/>
      <feBlend in="SourceGraphic" in2="effect1_dropShadow" result="shape"/>
    </filter>
  </defs>
</svg>

<svg width="680" height="756" viewBox="0 0 680 756" fill="none" xmlns="http://www.w3.org/2000/svg">
<g filter="url(#filter0_d)">
<path fill-rule="evenodd" clip-rule="evenodd" d="M351.376 123.679C283.94 112.863 209.656 72.3851 154.575 112.525C98.3628 153.49 99.1942 236.252 101.897 305.488C104.286 366.693 132.258 419.851 168.505 469.393C210.02 526.136 250.543 594.664 320.467 604.227C392.886 614.131 461.386 568.792 511.988 516.368C558.448 468.236 579.589 402.634 579.446 335.926C579.314 273.734 556.929 212.241 511.249 169.731C469.143 130.546 408.317 132.811 351.376 123.679Z" fill="white" fill-opacity="0.5"/>
</g>
<g filter="url(#filter1_d)">
<path d="M494.035 486.217C494.028 494.502 497.809 497.644 500.216 501.216C502.623 504.788 505.507 501.586 504.387 500.132C503.267 498.678 502.45 496.999 501.912 495.241C501.346 493.371 501.046 491.415 501.044 489.463C501.043 486.129 501.911 482.811 503.802 479.981L503.943 479.772C507.754 474.209 513.48 470.435 519.447 467.465C527.308 463.552 535.351 459.9 541.229 453.181C547.127 446.441 550.089 437.82 551.254 429.063C551.691 425.767 551.966 422.393 551.965 419.043C551.961 411.255 550.46 403.584 546.011 397.26C536.298 383.423 520.393 378.855 500.466 379.67C480.54 380.485 450.241 376.409 430.587 364.997C410.934 353.584 392.918 312.825 390.462 307.934C388.005 314.456 373.101 335.161 333.139 352.769C307.754 360.106 279.093 365.812 260.258 355.215C262.611 386.2 291.602 435.256 328.761 453.181C342.683 459.897 387.721 473.057 423.753 453.181C439.458 444.517 458.429 430.211 470.695 419.987C479.457 412.684 495.669 406.559 509.353 406.559C511.335 406.559 513.316 406.682 515.303 406.938C520.451 407.608 525.673 409.271 529.334 412.934C533.137 416.743 534.547 421.782 534.547 427.151C534.547 432.932 532.909 439.096 530.864 444.517C528.654 450.375 524.894 455.79 520.059 459.897C514.741 464.417 507.922 466.34 502.571 470.815C499.615 473.261 496.88 476.317 495.329 479.938C494.408 482.076 494.036 484.192 494.035 486.217Z" fill="#3A70A6"/>
<path fill-rule="evenodd" clip-rule="evenodd" d="M605.242 559.068C599.261 557.664 590.927 569.328 587.856 574.008C586.839 570.096 585.189 564.111 583.168 558.07C580.932 551.331 578.22 544.525 575.39 540.435C577.067 540.055 579.488 539.29 581.101 537.83C583.793 535.4 586.034 523.321 584.165 522.405C582.296 521.487 575.907 525.595 573.39 530.2C571.774 533.165 572.275 536.675 572.848 538.811C569.255 538.901 558.811 539.062 550.689 538.01C547.575 537.614 544.798 537.042 542.883 536.204C538.53 534.318 530.127 524.982 522.09 516.053C515.283 508.49 508.738 501.22 505.142 499.017C502.296 498.523 499.893 498.561 496.917 499.272C498.471 501.158 500.011 503.036 501.528 504.955C505.604 510.118 509.43 515.741 512.602 521.604C514.434 524.994 515.966 528.518 517.498 532.044C518.71 534.833 519.923 537.623 521.284 540.347C526.626 551.045 533.045 563.172 542.122 571.757C539.946 571.701 536.172 571.911 533.548 573.686C533.548 573.686 528.831 571.511 527.4 573.037C525.973 574.55 527.66 582.562 543.06 591.617C558.45 600.665 564.613 596.547 564.595 594.47C564.589 592.477 560.301 589.357 560.301 589.357C560.301 589.357 560.37 584.891 559.757 581.781L559.753 581.759C565.421 583.136 570.917 583.034 575.586 582.364C583.25 581.268 588.678 578.632 588.963 578.492L588.967 578.491C591.721 577.859 596.832 578.751 602.506 579.742C612.743 581.53 624.81 583.638 628.163 577.687C633.394 568.433 612.702 560.821 605.242 559.068ZM604.86 562.797C599.56 561.235 589.707 575.89 589.707 575.89C591.103 575.42 595.809 575.91 601.256 576.476C610.507 577.439 621.897 578.623 622.848 575.709C624.366 571.068 610.167 564.347 604.86 562.797Z" fill="#FFBF40"/>
<path fill-rule="evenodd" clip-rule="evenodd" d="M560.301 589.357C560.301 589.357 554.385 588.437 546.606 583.954C542.559 581.621 538.022 578.329 533.548 573.686C535.942 572.065 539.295 571.749 541.517 571.749C541.773 571.749 542.014 571.752 542.236 571.76C544.408 573.283 553.765 579.713 559.671 581.745L559.757 581.781C560.257 584.321 560.303 587.764 560.303 588.943C560.303 589.207 560.301 589.357 560.301 589.357Z" fill="#FF9F40"/>
<path d="M572.848 538.811C571.676 538.84 569.774 538.876 567.46 538.876C562.686 538.876 556.161 538.718 550.689 538.011C554.836 542.595 565.843 554.249 583.168 558.07C580.932 551.331 578.22 544.525 575.39 540.435C577.067 540.055 579.488 539.29 581.101 537.83C583.102 536.023 584.853 528.89 584.853 524.968C584.853 523.613 584.645 522.64 584.165 522.405C583.987 522.317 583.767 522.276 583.515 522.276C581.114 522.276 575.667 526.034 573.39 530.199C572.575 531.695 572.298 533.327 572.298 534.851C572.296 536.354 572.563 537.751 572.848 538.811Z" fill="#FF9F40"/>
<path fill-rule="evenodd" clip-rule="evenodd" d="M438.498 270.748L484.893 315.803C498.392 321.535 509.453 327.864 518.075 334.791C520.014 337.119 522.125 341.58 513.002 339.584C503.879 337.588 494.193 335.896 492.479 338.85C490.764 341.803 495.816 346.329 492.648 350.194C490.535 352.771 483.43 344.574 471.333 325.605L423.089 297.29L438.498 270.748ZM211.628 229.972L247.491 230.106C220.176 318.2 205.677 364.325 203.993 368.48C200.203 377.829 208.222 392.068 211.652 399.72C200.482 404.696 201.672 386.269 187.582 392.795C174.721 398.751 164.938 409.544 150.079 400.417C148.252 399.295 146.25 395.07 151.087 391.768C163.137 383.543 180.503 369.147 182.849 364.408C186.048 357.947 195.641 313.134 211.628 229.972Z" fill="#E6B795"/>
<path fill-rule="evenodd" clip-rule="evenodd" d="M320.909 128.698L335.071 126.28C357.381 204.784 472.007 258.296 479.043 287.643C481.624 298.406 473.843 303.846 477.862 307.124L459.454 320.538C456.337 316.918 449.685 323.541 435.793 318.908C421.901 314.275 320.909 221.654 320.909 128.698Z" fill="#C2C7CC"/>
<path fill-rule="evenodd" clip-rule="evenodd" d="M348.878 44.938C357.43 64.6349 371.375 109.665 364.989 117.958L317.978 124.695C317.962 124.612 317.945 124.53 317.928 124.448C300.226 125.026 284.548 112.262 281.965 94.4046L277.065 60.5165C274.293 41.355 287.651 23.5853 306.9 20.8268L310.142 20.3622C327.623 17.8571 343.95 28.5933 348.878 44.938Z" fill="#333230"/>
<path fill-rule="evenodd" clip-rule="evenodd" d="M299.286 85.3174C290.554 77.6597 283.952 67.6876 283.063 55.5808C280.503 20.6976 329.894 21.3741 341.808 37.4579C353.723 53.5417 359 97.9143 347.31 102.769C342.648 104.706 331.894 103.14 320.486 98.3461L333.785 143.806L294.88 149.381L299.286 85.3174Z" fill="#E6B795"/>
<path fill-rule="evenodd" clip-rule="evenodd" d="M344.731 139.135C343.099 243.069 403.454 269.581 390.01 311.275C378.909 345.706 272.647 382.718 254.259 348.968C246.816 335.307 243.439 318.784 243.056 300.82C238.356 314.621 234.64 326.502 231.905 336.463C227.189 353.647 208.903 356.378 208.903 362.998L184.812 356.378C186.446 347.385 175.089 343.006 178.134 322.914C191.778 232.89 228.437 167.634 288.111 127.147L288.729 118.358C288.981 114.766 292.111 112.057 295.721 112.308L339.833 115.378C343.442 115.63 346.164 118.746 345.911 122.339L344.731 139.135Z" fill="#DAE0E6"/>
<path fill-rule="evenodd" clip-rule="evenodd" d="M308.96 77.9761C313.524 96.887 315.972 118.879 311.381 124.841L264.37 131.578C255.199 86.65 283.05 100.566 276.882 57.9117C278.238 56.1505 279.51 54.4174 280.796 52.8957L280.562 51.6487C286.304 33.8923 295.432 24.1174 307.946 22.324C326.718 19.6338 333.901 27.4799 340.014 34.1393C338.105 47.5657 323.741 51.5744 311.894 61.4706C310.181 60.4502 308.118 59.9871 305.989 60.2923C301.065 60.9979 297.648 65.5437 298.356 70.4455C299.065 75.3472 303.632 78.7489 308.556 78.0432C308.692 78.0237 308.826 78.0014 308.96 77.9761Z" fill="#333230"/>
</g>
<defs>
<filter id="filter0_d" x="0.937378" y="45.1424" width="678.51" height="710.453" filterUnits="userSpaceOnUse" color-interpolation-filters="sRGB">
<feFlood flood-opacity="0" result="BackgroundImageFix"/>
<feColorMatrix in="SourceAlpha" type="matrix" values="0 0 0 0 0 0 0 0 0 0 0 0 0 0 0 0 0 0 127 0" result="hardAlpha"/>
<feOffset dy="50"/>
<feGaussianBlur stdDeviation="50"/>
<feColorMatrix type="matrix" values="0 0 0 0 0 0 0 0 0 0 0 0 0 0 0 0 0 0 0.1 0"/>
<feBlend mode="normal" in2="BackgroundImageFix" result="effect1_dropShadow"/>
<feBlend mode="normal" in="SourceGraphic" in2="effect1_dropShadow" result="shape"/>
</filter>
<filter id="filter1_d" x="108.07" y="0" width="560.93" height="657.228" filterUnits="userSpaceOnUse" color-interpolation-filters="sRGB">
<feFlood flood-opacity="0" result="BackgroundImageFix"/>
<feColorMatrix in="SourceAlpha" type="matrix" values="0 0 0 0 0 0 0 0 0 0 0 0 0 0 0 0 0 0 127 0" result="hardAlpha"/>
<feOffset dy="20"/>
<feGaussianBlur stdDeviation="20"/>
<feColorMatrix type="matrix" values="0 0 0 0 0 0 0 0 0 0 0 0 0 0 0 0 0 0 0.15 0"/>
<feBlend mode="normal" in2="BackgroundImageFix" result="effect1_dropShadow"/>
<feBlend mode="normal" in="SourceGraphic" in2="effect1_dropShadow" result="shape"/>
</filter>
</defs>
</svg>
